icons/modern/takeout-box.svg

<svg width="32" height="32" viewBox="0 0 32 32" fill="none" xmlns="http://www.w3.org/2000/svg">
<path d="M3.01562 19.25L8.51562 15.25" stroke="url(#paint0_linear_18_27694)" stroke-width="2" stroke-linecap="round" stroke-linejoin="round"/>
<path d="M3.01562 19.25L8.51562 15.25" stroke="url(#paint1_linear_18_27694)" stroke-width="2" stroke-linecap="round" stroke-linejoin="round"/>
<path d="M3.01562 19.25L8.51562 15.25" stroke="url(#paint2_radial_18_27694)" stroke-width="2" stroke-linecap="round" stroke-linejoin="round"/>
<path d="M28.9818 19.25L23.4818 15.25" stroke="url(#paint3_linear_18_27694)" stroke-width="2" stroke-linecap="round" stroke-linejoin="round"/>
<path d="M28.9818 19.25L23.4818 15.25" stroke="url(#paint4_radial_18_27694)" stroke-width="2" stroke-linecap="round" stroke-linejoin="round"/>
<path d="M25.5 15.5C25.5 15.5 23.5625 25.0312 16 25.0312C7.96875 25.0312 6.5 15.5 6.5 15.5C6.5 10.2533 10.7533 6 16 6C21.2467 6 25.5 10.2533 25.5 15.5Z" fill="url(#paint5_radial_18_27694)"/>
<path d="M25.5 15.5C25.5 15.5 23.5625 25.0312 16 25.0312C7.96875 25.0312 6.5 15.5 6.5 15.5C6.5 10.2533 10.7533 6 16 6C21.2467 6 25.5 10.2533 25.5 15.5Z" fill="url(#paint6_radial_18_27694)"/>
<path d="M25.5 15.5C25.5 15.5 23.5625 25.0312 16 25.0312C7.96875 25.0312 6.5 15.5 6.5 15.5C6.5 10.2533 10.7533 6 16 6C21.2467 6 25.5 10.2533 25.5 15.5Z" fill="url(#paint7_linear_18_27694)"/>
<path d="M25.1479 15.5H6.85431C6.66887 15.5 6.52681 15.6604 6.55735 15.8433C6.86596 17.6918 8.32356 26.4318 8.54688 27.9531C8.79688 29.6562 9.875 30 10.8281 30H20.9688C22.1406 30 23.2031 29.3438 23.4062 28.2969C23.5887 27.3567 25.1322 17.7838 25.4449 15.8424C25.4742 15.66 25.3326 15.5 25.1479 15.5Z" fill="url(#paint8_linear_18_27694)"/>
<path d="M25.1479 15.5H6.85431C6.66887 15.5 6.52681 15.6604 6.55735 15.8433C6.86596 17.6918 8.32356 26.4318 8.54688 27.9531C8.79688 29.6562 9.875 30 10.8281 30H20.9688C22.1406 30 23.2031 29.3438 23.4062 28.2969C23.5887 27.3567 25.1322 17.7838 25.4449 15.8424C25.4742 15.66 25.3326 15.5 25.1479 15.5Z" fill="url(#paint9_linear_18_27694)"/>
<path d="M25.1479 15.5H6.85431C6.66887 15.5 6.52681 15.6604 6.55735 15.8433C6.86596 17.6918 8.32356 26.4318 8.54688 27.9531C8.79688 29.6562 9.875 30 10.8281 30H20.9688C22.1406 30 23.2031 29.3438 23.4062 28.2969C23.5887 27.3567 25.1322 17.7838 25.4449 15.8424C25.4742 15.66 25.3326 15.5 25.1479 15.5Z" fill="url(#paint10_linear_18_27694)"/>
<path d="M25.1479 15.5H6.85431C6.66887 15.5 6.52681 15.6604 6.55735 15.8433C6.86596 17.6918 8.32356 26.4318 8.54688 27.9531C8.79688 29.6562 9.875 30 10.8281 30H20.9688C22.1406 30 23.2031 29.3438 23.4062 28.2969C23.5887 27.3567 25.1322 17.7838 25.4449 15.8424C25.4742 15.66 25.3326 15.5 25.1479 15.5Z" fill="url(#paint11_linear_18_27694)"/>
<path fill-rule="evenodd" clip-rule="evenodd" d="M16.25 17.2875C16.25 17.1494 16.1381 17.0375 16 17.0375C15.8619 17.0375 15.75 17.1494 15.75 17.2875V18.0563H14.0602C13.9792 18.0563 13.9354 18.1665 13.9354 18.1665L13.5063 19.4016C13.4791 19.4696 13.5063 19.5938 13.6621 19.5938H14.25V20.6188H12.8887C12.7588 20.6188 12.6886 20.7657 12.6886 20.7657L12 22.4125C11.9564 22.5033 12 22.6688 12.25 22.6688H13.25V24.9875H12.5C12.2239 24.9875 12 25.2114 12 25.4875C12 25.7636 12.2239 25.9875 12.5 25.9875H19.5C19.7761 25.9875 20 25.7636 20 25.4875C20 25.2114 19.7761 24.9875 19.5 24.9875H18.75V22.6688H19.75C20 22.6688 20.036 22.508 20 22.4125L19.3114 20.7657C19.3114 20.7657 19.2568 20.6188 19.1177 20.6188H17.75V19.5938H18.3368C18.4926 19.5938 18.5151 19.4732 18.4926 19.4016L18.0634 18.1665C18.0634 18.1665 18.0294 18.0563 17.9427 18.0563H16.25V17.2875ZM18.25 24.9875V22.6688H13.75V24.9875H18.25ZM14.75 20.6188V19.5938H17.25V20.6188H14.75Z" fill="url(#paint12_linear_18_27694)"/>
<g filter="url(#filter0_f_18_27694)">
<path d="M25.1562 15.9062H6.90625" stroke="url(#paint13_linear_18_27694)" stroke-width="0.25"/>
</g>
<defs>
<filter id="filter0_f_18_27694" x="6.65625" y="15.5312" width="18.75" height="0.75" filterUnits="userSpaceOnUse" color-interpolation-filters="sRGB">
<feFlood flood-opacity="0" result="BackgroundImageFix"/>
<feBlend mode="normal" in="SourceGraphic" in2="BackgroundImageFix" result="shape"/>
<feGaussianBlur stdDeviation="0.125" result="effect1_foregroundBlur_18_27694"/>
</filter>
<linearGradient id="paint0_linear_18_27694" x1="4.23438" y1="17.125" x2="5.5" y2="18.8125" gradientUnits="userSpaceOnUse">
<stop stop-color="#B7B7B7"/>
<stop offset="0.0911847" stop-color="#BFBFBF"/>
<stop offset="0.362963" stop-color="#CECCD0"/>
<stop offset="0.574815" stop-color="#CECCD0"/>
<stop offset="0.787566" stop-color="#B7B2BC"/>
<stop offset="1" stop-color="#A599B0"/>
</linearGradient>
<linearGradient id="paint1_linear_18_27694" x1="7" y1="16.5313" x2="6.03125" y2="16.5" gradientUnits="userSpaceOnUse">
<stop stop-color="#96929A"/>
<stop offset="1" stop-color="#9B999D" stop-opacity="0"/>
</linearGradient>
<radialGradient id="paint2_radial_18_27694" cx="0" cy="0" r="1" gradientUnits="userSpaceOnUse" gradientTransform="translate(5.875 17.0938) rotate(58.6632) scale(4.11605 5.65957)">
<stop offset="0.631422" stop-color="#A298AD" stop-opacity="0"/>
<stop offset="1" stop-color="#ADA7B3"/>
</radialGradient>
<linearGradient id="paint3_linear_18_27694" x1="27.7787" y1="17.1562" x2="26.5131" y2="18.9062" gradientUnits="userSpaceOnUse">
<stop stop-color="#D4D4D4"/>
<stop offset="0.0896368" stop-color="#EDEDED"/>
<stop offset="0.294321" stop-color="#EDEDED"/>
<stop offset="0.500284" stop-color="#DAD9DC"/>
<stop offset="1" stop-color="#A59BAF"/>
</linearGradient>
<radialGradient id="paint4_radial_18_27694" cx="0" cy="0" r="1" gradientUnits="userSpaceOnUse" gradientTransform="translate(26.2318 17.25) rotate(122.674) scale(3.78674 6.94571)">
<stop offset="0.482026" stop-color="#B2AABA" stop-opacity="0"/>
<stop offset="1" stop-color="#B3AABB"/>
</radialGradient>
<radialGradient id="paint5_radial_18_27694" cx="0" cy="0" r="1" gradientUnits="userSpaceOnUse" gradientTransform="translate(21.625 10.4375) rotate(155.833) scale(16.0299 17.5409)">
<stop stop-color="#F1F1F1"/>
<stop offset="0.529089" stop-color="#D6D6D6"/>
<stop offset="1" stop-color="#A6A6A6"/>
</radialGradient>
<radialGradient id="paint6_radial_18_27694" cx="0" cy="0" r="1" gradientUnits="userSpaceOnUse" gradientTransform="translate(16 15.0625) rotate(91.9653) scale(12.7575 13.0095)">
<stop offset="0.689727" stop-color="#B8B8B8" stop-opacity="0"/>
<stop offset="0.751572" stop-color="#B5B5B5"/>
</radialGradient>
<linearGradient id="paint7_linear_18_27694" x1="16" y1="6" x2="16" y2="25.0312" gradientUnits="userSpaceOnUse">
<stop offset="0.466338" stop-color="#B5B5B5" stop-opacity="0"/>
<stop offset="0.577997" stop-color="#B5B5B5"/>
</linearGradient>
<linearGradient id="paint8_linear_18_27694" x1="9.9375" y1="28.1875" x2="24.125" y2="16.5625" gradientUnits="userSpaceOnUse">
<stop stop-color="#C0B9C8"/>
<stop offset="0.48411" stop-color="#D7D2DC"/>
<stop offset="1" stop-color="#E5E3E7"/>
</linearGradient>
<linearGradient id="paint9_linear_18_27694" x1="7" y1="22.4062" x2="9.0625" y2="22" gradientUnits="userSpaceOnUse">
<stop offset="0.366902" stop-color="#B1ACB6"/>
<stop offset="1" stop-color="#B2ADB7" stop-opacity="0"/>
</linearGradient>
<linearGradient id="paint10_linear_18_27694" x1="16" y1="15.5" x2="16" y2="30" gradientUnits="userSpaceOnUse">
<stop offset="0.905172" stop-color="#C5B5D7" stop-opacity="0"/>
<stop offset="1" stop-color="#A583C4"/>
</linearGradient>
<linearGradient id="paint11_linear_18_27694" x1="25.0938" y1="21.7187" x2="23.9375" y2="21.5313" gradientUnits="userSpaceOnUse">
<stop offset="0.547687" stop-color="#CAC6CF"/>
<stop offset="0.891459" stop-color="#D5D1DB" stop-opacity="0"/>
</linearGradient>
<linearGradient id="paint12_linear_18_27694" x1="13.1875" y1="20.1061" x2="19.6025" y2="24.8253" gradientUnits="userSpaceOnUse">
<stop stop-color="#E53469"/>
<stop offset="1" stop-color="#F44564"/>
</linearGradient>
<linearGradient id="paint13_linear_18_27694" x1="7.28125" y1="16.1875" x2="7.46403" y2="17.9395" gradientUnits="userSpaceOnUse">
<stop stop-color="#D6D6D6"/>
<stop offset="1" stop-color="#F1F1F2"/>
</linearGradient>
</defs>
</svg>

<svg width="32" height="32" fill="none" xmlns="http://www.w3.org/2000/svg"><path d="m3.016 19.25 5.5-4" stroke="url(#a)" stroke-width="2" stroke-linecap="round" stroke-linejoin="round"/><path d="m3.016 19.25 5.5-4" stroke="url(#b)" stroke-width="2" stroke-linecap="round" stroke-linejoin="round"/><path d="m3.016 19.25 5.5-4" stroke="url(#c)" stroke-width="2" stroke-linecap="round" stroke-linejoin="round"/><path d="m28.982 19.25-5.5-4" stroke="url(#d)" stroke-width="2" stroke-linecap="round" stroke-linejoin="round"/><path d="m28.982 19.25-5.5-4" stroke="url(#e)" stroke-width="2" stroke-linecap="round" stroke-linejoin="round"/><path d="M25.5 15.5s-1.938 9.531-9.5 9.531c-8.031 0-9.5-9.531-9.5-9.531a9.5 9.5 0 0 1 19 0Z" fill="url(#f)"/><path d="M25.5 15.5s-1.938 9.531-9.5 9.531c-8.031 0-9.5-9.531-9.5-9.531a9.5 9.5 0 0 1 19 0Z" fill="url(#g)"/><path d="M25.5 15.5s-1.938 9.531-9.5 9.531c-8.031 0-9.5-9.531-9.5-9.531a9.5 9.5 0 0 1 19 0Z" fill="url(#h)"/><path d="M25.148 15.5H6.854a.296.296 0 0 0-.297.343c.309 1.849 1.767 10.589 1.99 12.11C8.797 29.656 9.875 30 10.828 30h10.14c1.173 0 2.235-.656 2.438-1.703.183-.94 1.726-10.513 2.039-12.455a.296.296 0 0 0-.297-.342Z" fill="url(#i)"/><path d="M25.148 15.5H6.854a.296.296 0 0 0-.297.343c.309 1.849 1.767 10.589 1.99 12.11C8.797 29.656 9.875 30 10.828 30h10.14c1.173 0 2.235-.656 2.438-1.703.183-.94 1.726-10.513 2.039-12.455a.296.296 0 0 0-.297-.342Z" fill="url(#j)"/><path d="M25.148 15.5H6.854a.296.296 0 0 0-.297.343c.309 1.849 1.767 10.589 1.99 12.11C8.797 29.656 9.875 30 10.828 30h10.14c1.173 0 2.235-.656 2.438-1.703.183-.94 1.726-10.513 2.039-12.455a.296.296 0 0 0-.297-.342Z" fill="url(#k)"/><path d="M25.148 15.5H6.854a.296.296 0 0 0-.297.343c.309 1.849 1.767 10.589 1.99 12.11C8.797 29.656 9.875 30 10.828 30h10.14c1.173 0 2.235-.656 2.438-1.703.183-.94 1.726-10.513 2.039-12.455a.296.296 0 0 0-.297-.342Z" fill="url(#l)"/><path fill-rule="evenodd" clip-rule="evenodd" d="M16.25 17.288a.25.25 0 1 0-.5 0v.768h-1.69c-.08 0-.125.11-.125.11l-.429 1.236c-.027.068 0 .192.156.192h.588v1.025h-1.361c-.13 0-.2.147-.2.147L12 22.413c-.044.09 0 .256.25.256h1v2.319h-.75a.5.5 0 0 0 0 1h7a.5.5 0 0 0 0-1h-.75v-2.32h1c.25 0 .286-.16.25-.255l-.689-1.647s-.054-.147-.193-.147H17.75v-1.025h.587c.156 0 .178-.12.156-.192l-.43-1.236s-.034-.11-.12-.11H16.25v-.768Zm2 7.7v-2.32h-4.5v2.32h4.5Zm-3.5-4.37v-1.024h2.5v1.025h-2.5Z" fill="url(#m)"/><g filter="url(#n)"><path d="M25.156 15.906H6.906" stroke="url(#o)" stroke-width=".25"/></g><defs><linearGradient id="a" x1="4.234" y1="17.125" x2="5.5" y2="18.813" gradientUnits="userSpaceOnUse"><stop stop-color="#B7B7B7"/><stop offset=".091" stop-color="#BFBFBF"/><stop offset=".363" stop-color="#CECCD0"/><stop offset=".575" stop-color="#CECCD0"/><stop offset=".788" stop-color="#B7B2BC"/><stop offset="1" stop-color="#A599B0"/></linearGradient><linearGradient id="b" x1="7" y1="16.531" x2="6.031" y2="16.5" gradientUnits="userSpaceOnUse"><stop stop-color="#96929A"/><stop offset="1" stop-color="#9B999D" stop-opacity="0"/></linearGradient><linearGradient id="d" x1="27.779" y1="17.156" x2="26.513" y2="18.906" gradientUnits="userSpaceOnUse"><stop stop-color="#D4D4D4"/><stop offset=".09" stop-color="#EDEDED"/><stop offset=".294" stop-color="#EDEDED"/><stop offset=".5" stop-color="#DAD9DC"/><stop offset="1" stop-color="#A59BAF"/></linearGradient><linearGradient id="h" x1="16" y1="6" x2="16" y2="25.031" gradientUnits="userSpaceOnUse"><stop offset=".466" stop-color="#B5B5B5" stop-opacity="0"/><stop offset=".578" stop-color="#B5B5B5"/></linearGradient><linearGradient id="i" x1="9.938" y1="28.188" x2="24.125" y2="16.563" gradientUnits="userSpaceOnUse"><stop stop-color="#C0B9C8"/><stop offset=".484" stop-color="#D7D2DC"/><stop offset="1" stop-color="#E5E3E7"/></linearGradient><linearGradient id="j" x1="7" y1="22.406" x2="9.063" y2="22" gradientUnits="userSpaceOnUse"><stop offset=".367" stop-color="#B1ACB6"/><stop offset="1" stop-color="#B2ADB7" stop-opacity="0"/></linearGradient><linearGradient id="k" x1="16" y1="15.5" x2="16" y2="30" gradientUnits="userSpaceOnUse"><stop offset=".905" stop-color="#C5B5D7" stop-opacity="0"/><stop offset="1" stop-color="#A583C4"/></linearGradient><linearGradient id="l" x1="25.094" y1="21.719" x2="23.938" y2="21.531" gradientUnits="userSpaceOnUse"><stop offset=".548" stop-color="#CAC6CF"/><stop offset=".891" stop-color="#D5D1DB" stop-opacity="0"/></linearGradient><linearGradient id="m" x1="13.188" y1="20.106" x2="19.602" y2="24.825" gradientUnits="userSpaceOnUse"><stop stop-color="#E53469"/><stop offset="1" stop-color="#F44564"/></linearGradient><linearGradient id="o" x1="7.281" y1="16.188" x2="7.464" y2="17.939" gradientUnits="userSpaceOnUse"><stop stop-color="#D6D6D6"/><stop offset="1" stop-color="#F1F1F2"/></linearGradient><radialGradient id="c" cx="0" cy="0" r="1" gradientUnits="userSpaceOnUse" gradientTransform="matrix(2.14063 3.51562 -4.83398 2.94336 5.875 17.094)"><stop offset=".631" stop-color="#A298AD" stop-opacity="0"/><stop offset="1" stop-color="#ADA7B3"/></radialGradient><radialGradient id="e" cx="0" cy="0" r="1" gradientUnits="userSpaceOnUse" gradientTransform="rotate(122.674 8.401 15.795) scale(3.78674 6.94571)"><stop offset=".482" stop-color="#B2AABA" stop-opacity="0"/><stop offset="1" stop-color="#B3AABB"/></radialGradient><radialGradient id="f" cx="0" cy="0" r="1" gradientUnits="userSpaceOnUse" gradientTransform="matrix(-14.62498 6.5626 -7.1812 -16.00355 21.625 10.438)"><stop stop-color="#F1F1F1"/><stop offset=".529" stop-color="#D6D6D6"/><stop offset="1" stop-color="#A6A6A6"/></radialGradient><radialGradient id="g" cx="0" cy="0" r="1" gradientUnits="userSpaceOnUse" gradientTransform="matrix(-.4375 12.75 -13.00185 -.44615 16 15.063)"><stop offset=".69" stop-color="#B8B8B8" stop-opacity="0"/><stop offset=".752" stop-color="#B5B5B5"/></radialGradient><filter id="n" x="6.656" y="15.531" width="18.75" height=".75" filterUnits="userSpaceOnUse" color-interpolation-filters="sRGB"><feFlood flood-opacity="0" result="BackgroundImageFix"/><feBlend in="SourceGraphic" in2="BackgroundImageFix" result="shape"/><feGaussianBlur stdDeviation=".125" result="effect1_foregroundBlur_18_27694"/></filter></defs></svg>
